X:1
T:Title
%%score { 1 | 2 }
L:1/8
M:3/4
K:F
V:1 treble nm="Grand Piano"
V:2 bass 
V:1
 z2 z2[Q:1/4=108] A2 | A2 _A2 =A2 | F4 cc | B2 F2 G2 | A4 A2 | [EA]2 [EG]2 [_E^F]2 | %6
 [EG]4 [EA][EG] | F2 E2 F2 | [EG]4 A2 | A2 _A2 =A2 | F4 cc | B2 F2 G2 | A4 c2 | d2 c2 B2 | %14
 A2 F2 A2 | G2 D2 E2 |[M:2/4] F4 |[M:1/4] c2 |[M:3/4] c2 =B2 c2 | A4 AA | A2 _A2 =A2 | F4 A2 | %22
 A2 G2 ^F2 | G4 cc | =B2 c2 d2 | [Ec]4 [Bc]2 | [Af]2 [Be]2 [Bd]2 | [Ac]4 AA | d2 c2 B2 | A4 A2 | %30
[M:7/8] [DG]2 [Dd]3 [DG]2 | %31
 [CF]2 [Fc]3 [FA]2[Q:1/4=106][Q:1/4=105][Q:1/4=103][Q:1/4=101][Q:1/4=100][Q:1/4=98][Q:1/4=96][Q:1/4=95][Q:1/4=93][Q:1/4=91][Q:1/4=89][Q:1/4=88][Q:1/4=86][Q:1/4=84][Q:1/4=83] | %32
[M:3/4] [Ec]2 [EB]2 [EG]2 |[M:2/4] [CF]4 |] %34
V:2
 z2 z2 [F,CF]2 | [F,CF]2 [F,=B,F]2 [F,CF]2 | [F,A,]4 [F,_EF][F,EF] | [F,DF]2 [F,D]2 [F,^CF]2 | %4
 [F,CF]4 [F,CF]2 | [C,C]2 [C,B,]2 [C,A,]2 | [C,B,]4 [C,C][C,B,] | [F,A,C]2 [F,G,C]2 [F,A,C]2 | %8
 [C,B,]4 [F,CF]2 | [F,CF]2 [F,=B,F]2 [F,CF]2 | [F,A,]4 [F,_EF][F,EF] | [F,DF]2 [F,D]2 [F,^CF]2 | %12
 [F,CF]4 [F,A,F]2 | [F,B,F]2 [F,A,F]2 [F,DF]2 | [F,CF]2 [F,A,]2 [F,CF]2 | %15
 [G,=B,D]2 [G,B,]2 [C,_B,C]2 |[M:2/4] [F,A,C]4 |[M:1/4][K:treble] A2 |[M:3/4] A2 _A2 =A2 | %19
 F4 [CF][CF] | [CF]2 [=B,F]2 [CF]2 | [A,C]4 [F,CF]2 | [G,CE]2 [G,CE]2 [G,C_E]2 | %23
 [G,CE]4 [G,EG][G,EG] | [G,DF]2 [G,CE]2 [G,=B,F]2 | [C,C]4 [G,C]2 | [F,C]2 [F,D]2 [F,E]2 | %27
 [F,F]4 [F,CF][F,CF] | [B,F]2 [A,CF]2[K:bass] [F,CE]2 | [F,CF]4 [F,CF]2 | %30
[M:7/8] [B,,B,]2 [B,,B,]3 [B,,B,]2 | [C,A,]2 [C,A,]3 [C,A,]2 |[M:3/4] [C,G,]2 [C,C]2 [C,B,]2 | %33
[M:2/4] [F,A,]4 |] %34

